icon-svg/apple-watch-pro.svg

<svg xmlns="http://www.w3.org/2000/svg" fill="#44739e" viewBox="0 0 24 24"><path d="m17.738 12.038.006-1.556c-.041.081-.356.081-.356.081h-.232v-.308h.405c.061 0 .185-.095.185-.156l.013-1.233c0-.062-.064-.171-.126-.175h-.477V8.48h.588v-.153a.244.244 0 0 0-.244-.244h-.344v-.145A2.194 2.194 0 0 0 15.73 5.89a1.77 1.77 0 0 1-.449-1.39V3.343c0-.9-.5-.99-1.516-1.166A11.25 11.25 0 0 0 11.844 2a10.96 10.96 0 0 0-1.921.177c-1.016.2-1.517.305-1.517 1.166V4.5a1.741 1.741 0 0 1-.438 1.386 2.194 2.194 0 0 0-1.437 2.052v8.124a2.194 2.194 0 0 0 1.437 2.052 1.741 1.741 0 0 1 .438 1.386v1.157c0 .861.5.968 1.517 1.166a10.96 10.96 0 0 0 1.921.177 11.25 11.25 0 0 0 1.921-.177c1.015-.176 1.516-.261 1.516-1.166V19.5a1.77 1.77 0 0 1 .449-1.39 2.194 2.194 0 0 0 1.426-2.048v-1.25h.156c.087 0 .417-.095.417-.181v-.977c.07-.029.162-.11.165-.185v-1.262c-.003-.072-.094-.138-.156-.169m-.894 4.024a1.878 1.878 0 0 1-1.875 1.876h-6.25a1.878 1.878 0 0 1-1.875-1.876V7.938a1.878 1.878 0 0 1 1.875-1.876h6.25a1.878 1.878 0 0 1 1.875 1.876zM8.719 6.375h6.249c.8659 0 1.563.6971 1.563 1.563v8.124c0 .8659-.6971 1.563-1.563 1.563H8.719a1.5596 1.5596 0 0 1-1.563-1.563V7.938c0-.8659.6971-1.563 1.563-1.563"/></svg>

<?xml version="1.0" encoding="UTF-8"?>
<svg width="24px" fill="#44739e" height="24px" viewBox="0 0 24 24" version="1.1" xmlns="http://www.w3.org/2000/svg" xmlns:xlink="http://www.w3.org/1999/xlink">
            <path d="m 17.738,12.038 0.006,-1.556 c -0.041,0.081 -0.356,0.081 -0.356,0.081 h -0.232 v -0.308 h 0.405 c 0.061,0 0.185,-0.095 0.185,-0.156 l 0.013,-1.233 c 0,-0.062 -0.064,-0.171 -0.126,-0.175 H 17.156 V 8.48 h 0.588 V 8.327 A 0.244,0.244 0 0 0 17.5,8.083 H 17.156 V 7.938 A 2.194,2.194 0 0 0 15.73,5.89 1.771,1.771 0 0 1 15.281,4.5 V 3.343 c 0,-0.9 -0.5,-0.99 -1.516,-1.166 A 11.252,11.252 0 0 0 11.844,2 10.957,10.957 0 0 0 9.923,2.177 C 8.907,2.377 8.406,2.482 8.406,3.343 V 4.5 A 1.741,1.741 0 0 1 7.968,5.886 2.194,2.194 0 0 0 6.531,7.938 v 8.124 a 2.194,2.194 0 0 0 1.437,2.052 1.741,1.741 0 0 1 0.438,1.386 v 1.157 c 0,0.861 0.5,0.968 1.517,1.166 A 10.957,10.957 0 0 0 11.844,22 11.252,11.252 0 0 0 13.765,21.823 c 1.015,-0.176 1.516,-0.261 1.516,-1.166 V 19.5 a 1.771,1.771 0 0 1 0.449,-1.39 2.194,2.194 0 0 0 1.426,-2.048 v -1.25 h 0.156 c 0.087,0 0.417,-0.095 0.417,-0.181 v -0.977 c 0.07,-0.029 0.162,-0.11 0.165,-0.185 V 12.207 C 17.891,12.135 17.8,12.069 17.738,12.038 Z m -0.894,4.024 a 1.878,1.878 0 0 1 -1.875,1.876 H 8.719 A 1.878,1.878 0 0 1 6.844,16.062 V 7.938 A 1.878,1.878 0 0 1 8.719,6.062 h 6.25 a 1.878,1.878 0 0 1 1.875,1.876 z M 8.7190001,6.375 H 14.968 c 0.865902,0 1.563,0.697098 1.563,1.563 v 8.124 c 0,0.865902 -0.697098,1.563 -1.563,1.563 H 8.7190001 c -0.865902,0 -1.563,-0.697098 -1.563,-1.563 V 7.938 c 0,-0.865902 0.697098,-1.563 1.563,-1.563 z"/>

</svg>
